src/activities/piano_composition/resource/trebleClef.svg

<?xml version="1.0" encoding="UTF-8" standalone="no"?>
<svg
   xmlns:dc="http://purl.org/dc/elements/1.1/"
   xmlns:cc="http://creativecommons.org/ns#"
   xmlns:rdf="http://www.w3.org/1999/02/22-rdf-syntax-ns#"
   xmlns:svg="http://www.w3.org/2000/svg"
   xmlns="http://www.w3.org/2000/svg"
   xmlns:sodipodi="http://sodipodi.sourceforge.net/DTD/sodipodi-0.dtd"
   xmlns:inkscape="http://www.inkscape.org/namespaces/inkscape"
   id="svg2"
   sodipodi:docname="trebleClef.svg"
   viewBox="0 0 95.116 153.12"
   sodipodi:version="0.32"
   inkscape:output_extension="org.inkscape.output.svg.inkscape"
   inkscape:version="0.92.1 r15371"
   version="1.1">
  <defs
     id="defs7" />
  <sodipodi:namedview
     id="base"
     bordercolor="#666666"
     inkscape:pageshadow="2"
     guidetolerance="10.0"
     pagecolor="#ffffff"
     gridtolerance="10.0"
     inkscape:zoom="2.4686199"
     objecttolerance="10.0"
     borderopacity="1.0"
     inkscape:current-layer="svg2"
     inkscape:cx="-34.066656"
     inkscape:cy="80.611843"
     inkscape:window-y="0"
     inkscape:window-x="0"
     inkscape:window-height="1051"
     showgrid="false"
     inkscape:pageopacity="0.0"
     inkscape:window-width="1884"
     inkscape:window-maximized="1" />
  <path
     style="stroke:none;fill:#000000"
     d="M 51.701172 4.75 C 50.143107 4.709548 48.615442 5.5914695 47.205078 7.0234375 C 45.794714 8.4554055 44.47883 10.463806 43.341797 12.833984 C 41.06773 17.574341 39.517767 23.761369 39.625 29.634766 C 39.67504 33.211948 40.777491 40.249223 42.371094 49.083984 C 32.202752 59.59209 20.31578 70.490899 20.3125 84.931641 C 20.312484 84.932941 20.312516 84.934247 20.3125 84.935547 L 20.3125 84.9375 C 20.2309 91.569097 22.206476 99.08474 26.626953 104.96094 C 31.048694 110.83881 37.952891 115.05195 47.566406 114.9707 C 50.30168 114.9519 52.761537 114.60955 54.998047 114.05859 C 56.670052 123.27432 57.787887 130.62739 57.78125 133.9082 L 57.78125 133.91016 L 57.78125 133.91211 C 57.81077 140.51307 53.551864 144.03256 49.154297 145.05273 C 46.955513 145.56282 44.730862 145.42017 43.052734 144.70898 C 41.526209 144.06204 40.554765 142.93313 40.228516 141.41211 C 43.936458 140.95613 46.84375 137.97314 46.84375 134.2207 C 46.84375 130.15471 43.47101 126.83984 39.3125 126.83984 C 37.036713 126.83984 35.000085 127.83653 33.615234 129.39648 C 33.604874 129.40688 33.568575 129.43739 33.515625 129.49219 L 33.513672 129.49414 L 33.511719 129.49805 C 33.180649 129.84953 32.915901 130.25059 32.664062 130.68555 C 32.664062 130.68555 32.662109 130.6875 32.662109 130.6875 C 32.662109 130.6875 32.662109 130.68945 32.662109 130.68945 C 31.806729 132.13827 31.278584 134.16635 31.25 136.99414 L 31.25 136.99805 L 31.25 137 C 31.25 140.0657 33.177505 142.79971 35.970703 144.80469 C 38.763901 146.80966 42.449492 148.12049 46.15625 148.35156 C 49.863008 148.58263 53.608886 147.72687 56.4375 145.32422 C 59.264732 142.92274 61.123184 138.9901 61.125 133.25781 L 61.125 133.25391 C 61.17092 130.11495 59.881681 122.61401 58.029297 113.12891 C 68.235803 109.21885 72.132873 99.615855 71.035156 90.945312 C 69.922524 82.156959 63.688965 74.23029 53.941406 74.15625 L 53.9375 74.15625 L 53.933594 74.15625 C 52.607758 74.16978 51.334251 74.362416 50.085938 74.638672 C 49.058212 69.69139 48.066635 64.885018 47.195312 60.455078 C 54.361633 53.359855 60.639697 44.055849 60.5 27.21875 C 60.51087 21.106805 59.502814 15.598894 57.929688 11.5625 C 57.143034 9.5440754 56.217843 7.8922892 55.179688 6.7089844 C 54.141531 5.5256796 52.965055 4.7913347 51.705078 4.75 L 51.703125 4.75 L 51.701172 4.75 z M 53.017578 17.466797 C 54.080398 17.364236 54.967948 17.764438 55.679688 18.810547 C 56.391427 19.856656 56.875 21.586504 56.875 24.03125 L 56.875 24.037109 L 56.875 24.042969 C 57.06157 32.124539 51.52858 39.323202 44.703125 46.599609 C 44.144604 43.095969 43.69876 39.9571 43.65625 38.244141 C 43.759065 31.584991 45.176549 26.441805 47.044922 22.943359 C 48.914645 19.442385 51.247114 17.637616 53.017578 17.466797 z M 44.929688 62.611328 C 45.738199 66.760865 46.595545 71.078852 47.46875 75.451172 C 41.239334 77.835157 36.630849 83.292435 35.769531 89.277344 C 34.888826 95.396974 38.009629 101.97986 47.048828 105.95703 L 47.574219 105.11914 C 42.257699 100.59301 40.982503 95.767428 41.894531 91.833984 C 42.764193 88.083263 45.69143 85.174254 49.185547 84.121094 C 51.075969 93.563945 52.913235 102.84923 54.417969 110.94336 C 52.455606 111.58299 50.209261 111.98119 47.5625 112 C 44.078067 112 38.776008 110.87335 34.400391 107.64844 C 30.024773 104.42352 26.53125 99.139297 26.53125 90.625 C 26.53125 83.493531 28.976704 78.542758 32.583984 74.246094 C 36.017575 70.156312 40.527467 66.657898 44.929688 62.611328 z M 51.958984 83.625 C 52.073794 83.6269 52.180986 83.621 52.294922 83.625 L 52.302734 83.625 L 52.3125 83.625 C 64.629857 83.625 69.397415 102.87831 57.332031 109.64062 C 55.740454 101.66818 53.853883 92.665781 51.958984 83.625 z "
     id="path26" />
  <metadata
     id="metadata4">
    <rdf:RDF>
      <cc:Work>
        <dc:format>image/svg+xml</dc:format>
        <dc:type
           rdf:resource="http://purl.org/dc/dcmitype/StillImage" />
        <cc:license
           rdf:resource="http://creativecommons.org/publicdomain/zero/1.0/" />
        <dc:publisher>
          <cc:Agent
             rdf:about="http://openclipart.org/">
            <dc:title>Openclipart</dc:title>
          </cc:Agent>
        </dc:publisher>
        <dc:title>Treble clef</dc:title>
        <dc:date>2006-12-03T12:59:04</dc:date>
        <dc:description>Hollow treble clef for use at drawings</dc:description>
        <dc:source>https://openclipart.org/detail/12473/treble-clef-by-rickvanderzwet-12473</dc:source>
        <dc:creator>
          <cc:Agent>
            <dc:title>rickvanderzwet</dc:title>
          </cc:Agent>
        </dc:creator>
        <dc:subject>
          <rdf:Bag>
            <rdf:li>clef</rdf:li>
            <rdf:li>line art</rdf:li>
            <rdf:li>music</rdf:li>
            <rdf:li>sign</rdf:li>
            <rdf:li>silhouette</rdf:li>
            <rdf:li>treble</rdf:li>
          </rdf:Bag>
        </dc:subject>
        <dc:contributor>
          <cc:Agent>
            <dc:title>Edited by Timothée Giet for GCompris</dc:title>
          </cc:Agent>
        </dc:contributor>
      </cc:Work>
      <cc:License
         rdf:about="http://creativecommons.org/publicdomain/zero/1.0/">
        <cc:permits
           rdf:resource="http://creativecommons.org/ns#Reproduction" />
        <cc:permits
           rdf:resource="http://creativecommons.org/ns#Distribution" />
        <cc:permits
           rdf:resource="http://creativecommons.org/ns#DerivativeWorks" />
      </cc:License>
    </rdf:RDF>
  </metadata>
</svg>

<svg xmlns:dc="http://purl.org/dc/elements/1.1/" xmlns:cc="http://creativecommons.org/ns#" xmlns:rdf="http://www.w3.org/1999/02/22-rdf-syntax-ns#" xmlns="http://www.w3.org/2000/svg" xmlns:sodipodi="http://sodipodi.sourceforge.net/DTD/sodipodi-0.dtd" xmlns:inkscape="http://www.inkscape.org/namespaces/inkscape" sodipodi:docname="trebleClef.svg" viewBox="0 0 95.116 153.12" sodipodi:version="0.32" inkscape:output_extension="org.inkscape.output.svg.inkscape" inkscape:version="0.92.1 r15371"><sodipodi:namedview bordercolor="#666666" inkscape:pageshadow="2" guidetolerance="10.0" pagecolor="#ffffff" gridtolerance="10.0" inkscape:zoom="2.4686199" objecttolerance="10.0" borderopacity="1.0" inkscape:current-layer="svg2" inkscape:cx="-34.066656" inkscape:cy="80.611843" inkscape:window-y="0" inkscape:window-x="0" inkscape:window-height="1051" showgrid="false" inkscape:pageopacity="0.0" inkscape:window-width="1884" inkscape:window-maximized="1"/><path style="stroke:none;fill:#000" d="M51.701 4.75c-1.558-.04-3.086.841-4.496 2.273-1.41 1.432-2.726 3.44-3.863 5.811-2.274 4.74-3.824 10.927-3.717 16.8.05 3.578 1.152 10.615 2.746 19.45-10.168 10.508-22.055 21.407-22.059 35.848v.005c-.081 6.632 1.894 14.148 6.315 20.024 4.422 5.878 11.326 10.091 20.94 10.01a31.781 31.781 0 0 0 7.431-.912c1.672 9.215 2.79 16.568 2.783 19.85v.003c.03 6.601-4.23 10.12-8.627 11.14-2.198.51-4.423.368-6.101-.343-1.527-.647-2.498-1.776-2.824-3.297 3.707-.456 6.615-3.439 6.615-7.191 0-4.066-3.373-7.381-7.532-7.381a7.602 7.602 0 0 0-5.697 2.556c-.01.01-.046.041-.1.096l-.001.002-.002.004c-.331.352-.596.753-.848 1.188l-.002.001v.002c-.855 1.45-1.383 3.477-1.412 6.305V137c0 3.066 1.928 5.8 4.72 7.805 2.794 2.005 6.48 3.315 10.186 3.547 3.707.23 7.453-.625 10.282-3.028 2.827-2.401 4.685-6.334 4.687-12.066v-.004c.046-3.139-1.243-10.64-3.096-20.125 10.207-3.91 14.104-13.513 13.006-22.184-1.112-8.788-7.346-16.715-17.094-16.789h-.007c-1.326.014-2.6.206-3.848.483-1.028-4.948-2.02-9.754-2.89-14.184C54.361 53.36 60.64 44.055 60.5 27.22c.01-6.112-.997-11.62-2.57-15.657-.787-2.018-1.712-3.67-2.75-4.853-1.038-1.183-2.215-1.918-3.475-1.959h-.004zm1.317 12.717c1.062-.103 1.95.297 2.662 1.344.711 1.046 1.195 2.776 1.195 5.22v.012c.187 8.082-5.346 15.28-12.172 22.557-.558-3.504-1.004-6.643-1.047-8.356.103-6.659 1.52-11.802 3.389-15.3 1.87-3.502 4.202-5.306 5.973-5.477zM44.93 62.61c.808 4.15 1.666 8.468 2.539 12.84-6.23 2.384-10.838 7.841-11.7 13.826-.88 6.12 2.24 12.703 11.28 16.68l.525-.838c-5.316-4.526-6.591-9.352-5.68-13.285.87-3.75 3.797-6.66 7.292-7.713 1.89 9.443 3.727 18.728 5.232 26.822-1.962.64-4.209 1.038-6.855 1.057-3.485 0-8.787-1.127-13.163-4.352-4.375-3.224-7.869-8.509-7.869-17.023 0-7.131 2.446-12.082 6.053-16.379 3.434-4.09 7.943-7.588 12.346-11.635zm7.029 21.014c.115.002.222-.004.336 0H52.313c12.317 0 17.084 19.253 5.019 26.016-1.592-7.973-3.478-16.975-5.373-26.016z"/><metadata><rdf:RDF><cc:Work><dc:format>image/svg+xml</dc:format><dc:type rdf:resource="http://purl.org/dc/dcmitype/StillImage"/><cc:license rdf:resource="http://creativecommons.org/publicdomain/zero/1.0/"/><dc:publisher><cc:Agent rdf:about="http://openclipart.org/"><dc:title>Openclipart</dc:title></cc:Agent></dc:publisher><dc:title>Treble clef</dc:title><dc:date>2006-12-03T12:59:04</dc:date><dc:description>Hollow treble clef for use at drawings</dc:description><dc:source>https://openclipart.org/detail/12473/treble-clef-by-rickvanderzwet-12473</dc:source><dc:creator><cc:Agent><dc:title>rickvanderzwet</dc:title></cc:Agent></dc:creator><dc:subject><rdf:Bag><rdf:li>clef</rdf:li><rdf:li>line art</rdf:li><rdf:li>music</rdf:li><rdf:li>sign</rdf:li><rdf:li>silhouette</rdf:li><rdf:li>treble</rdf:li></rdf:Bag></dc:subject><dc:contributor><cc:Agent><dc:title>Edited by Timothée Giet for GCompris</dc:title></cc:Agent></dc:contributor></cc:Work><cc:License rdf:about="http://creativecommons.org/publicdomain/zero/1.0/"><cc:permits rdf:resource="http://creativecommons.org/ns#Reproduction"/><cc:permits rdf:resource="http://creativecommons.org/ns#Distribution"/><cc:permits rdf:resource="http://creativecommons.org/ns#DerivativeWorks"/></cc:License></rdf:RDF></metadata></svg>
